public/images/icons/email.svg

<svg width="27" height="26" viewBox="0 0 27 26" fill="none" xmlns="http://www.w3.org/2000/svg">
    <rect x="0.25" y="0.25" width="26.5" height="25.5" rx="12.75" fill="white" />
    <path
        d="M18.5466 8.33068L17.587 8.99342L13.5009 11.6775L9.4149 8.96691L8.45524 8.30417C8.22917 8.13885 7.95319 8.03579 7.6615 8.00776C7.3698 7.97974 7.07522 8.02797 6.81424 8.1465C6.55326 8.26502 6.33735 8.44862 6.19326 8.67456C6.04917 8.90049 5.98324 9.15883 6.00362 9.41757V17.0987C6.00362 17.3377 6.11105 17.567 6.30227 17.736C6.49349 17.905 6.75283 18 7.02326 18H9.4149V12.8837L13.5009 15.5943L17.587 12.8837V18H19.9786C20.249 18 20.5084 17.905 20.6996 17.736C20.8908 17.567 20.9982 17.3377 20.9982 17.0987V9.41757C21.0123 9.16106 20.9418 8.90647 20.7952 8.68473C20.6487 8.46299 20.4324 8.28366 20.1728 8.16853C19.9131 8.0534 19.6211 8.00744 19.3325 8.03622C19.0438 8.06501 18.7708 8.16731 18.5466 8.33068Z"
        fill="#212121" />
    <rect x="0.25" y="0.25" width="26.5" height="25.5" rx="12.75" stroke="#6C6C6C" stroke-width="0.5" />
</svg>

<svg width="27" height="26" fill="none" xmlns="http://www.w3.org/2000/svg">
    <rect x=".25" y=".25" width="26.5" height="25.5" rx="12.75" fill="#fff" />
    <path
        d="m18.547 8.33-.96.663-4.086 2.684-4.086-2.71-.96-.663a1.607 1.607 0 0 0-.793-.296 1.67 1.67 0 0 0-.848.139 1.435 1.435 0 0 0-.62.528c-.145.225-.21.484-.19.743v7.68c0 .24.107.469.298.638.191.169.45.264.721.264h2.392v-5.116l4.086 2.71 4.086-2.71V18h2.392c.27 0 .53-.095.72-.264a.852.852 0 0 0 .3-.637V9.418a1.205 1.205 0 0 0-.204-.733 1.441 1.441 0 0 0-.622-.516 1.672 1.672 0 0 0-.84-.133 1.607 1.607 0 0 0-.786.295Z"
        fill="#212121" />
    <rect x=".25" y=".25" width="26.5" height="25.5" rx="12.75" stroke="#6C6C6C" stroke-width=".5" />
</svg>
